icons/svgs/octagon-solid.svg

<svg width="24" height="24" viewBox="0 0 24 24" fill="none" xmlns="http://www.w3.org/2000/svg">
<path d="M9.46094 2.03906H14.5C15.2422 2.03906 15.9453 2.3125 16.4922 2.85938L21.1406 7.50781C21.6875 8.05469 21.9609 8.75781 21.9609 9.5V14.5391C21.9609 15.2812 21.6875 15.9844 21.1406 16.5312L16.4922 21.1797C15.9453 21.7266 15.2422 22 14.5 22H9.46094C8.71875 22 8.01562 21.7266 7.46875 21.1797L2.82031 16.5312C2.27344 15.9844 2 15.2812 2 14.5391V9.5C2 8.75781 2.27344 8.05469 2.82031 7.50781L7.46875 2.85938C8.01562 2.3125 8.71875 2.03906 9.46094 2.03906Z" fill="black"/>
</svg>

<svg xmlns="http://www.w3.org/2000/svg" width="24" height="24" fill="currentColor" class="icon-octagon-solid" viewBox="0 0 24 24">
  <mask id="a" width="20" height="20" x="2" y="2" maskUnits="userSpaceOnUse" style="mask-type:alpha">
    <path d="M9.46 2.04h5.04c.742 0 1.445.272 1.992.82l4.649 4.648c.547.547.82 1.25.82 1.992v5.04c0 .741-.273 1.444-.82 1.991l-4.649 4.649c-.547.547-1.25.82-1.992.82H9.46a2.78 2.78 0 0 1-1.991-.82L2.82 16.53A2.78 2.78 0 0 1 2 14.54V9.5c0-.742.273-1.445.82-1.992l4.65-4.649a2.78 2.78 0 0 1 1.992-.82"/>
  </mask>
  <g mask="url(#a)">
    <path d="M0 0h24v24H0z"/>
  </g>
</svg>
